X:3434
T:La Reine du Bal ("Jesus Christ Superstar") - scottish/schottisch/schottische
O:england
N:please mail errors to: simon.wascher@chello.at
M:2/4
L:1/16
K:G
D2G2 B3A|GFGED4|c2cA B2G2|A2GF E2D2|
D2G2 B3A|GFGED4|c2cA B2G2|A2F2G4:|
|:A3FD4|B3GD4|c2Ac B2G2|A3FD4|
A3FD4|B3GD4|c2Ac B2G2|A2F2G4:|


